X:612
T:No Party
S:Bruce & Emmett's Drummers and Fifers Guide (1862), p. 61
M:6/8
L:1/8
Q:1/8=270
K:G
%%MIDI program 72
%%MIDI transpose 8
%%MIDI ratio 3 1
g|dBG GFG|ABA ABd|ege dBd|gGG Gge|dBG GFG|ABA ABd|ege dBd|gGG G2::
e|def gfg|efg a2g|gab efg|dBG cAF|def gfg|efg a2f|gc'c' eaa|def g2:|
